packages/icons/svg/Fill/save.svg

<svg fill="none" height="24" viewBox="0 0 24 24" width="24" xmlns="http://www.w3.org/2000/svg"><path clip-rule="evenodd" d="m15.2921 3.878 4.829 4.829c.562.562.879 1.326.879 2.122v7.171c0 1.657-1.343 3-3 3h-2v-4c0-1.103-.898-2-2-2h-4c-1.103 0-2 .897-2 2v4h-2c-1.657 0-3-1.343-3-3v-12c0-1.657 1.343-3 3-3h2v7c0 .552.447 1 1 1h6c.553 0 1-.448 1-1s-.447-1-1-1h-5v-6h3.172c.795 0 1.558.316 2.12.878zm-5.29212 13.1221h4.00002l.001 4h-4.00102z" fill="#6b7280" fill-rule="evenodd"/></svg>

<svg width="24" height="24" viewBox="0 0 24 24" fill="none" xmlns="http://www.w3.org/2000/svg">
<g id="Icon/Fill/save">
<path id="Mask" fill-rule="evenodd" clip-rule="evenodd" d="M15.292 3.878L20.121 8.707C20.683 9.269 21 10.033 21 10.829V18C21 19.657 19.657 21 18 21H16V17C16 15.897 15.102 15 14 15H10C8.897 15 8 15.897 8 17V21H6C4.343 21 3 19.657 3 18V6C3 4.343 4.343 3 6 3H8V10C8 10.552 8.447 11 9 11H15C15.553 11 16 10.552 16 10C16 9.448 15.553 9 15 9H10V3H13.172C13.967 3 14.73 3.316 15.292 3.878ZM9.9999 17H13.9999L14.0009 21H9.9999V17Z" fill="#000000"/>
</g>
</svg>
